X: 04097
T: WEATHERBEE'S HORNPIPE
C: Bob McQuillen 31 May 79
B: Bob's Note Book 04 #97
R: hornpipe
Z: 2019 John Chambers <jc:trillian.mit.edu>
M: C
L: 1/8
K: D
f>g \
| a>ba>g f>Ad>e | f>dB>d A2F>A | B>AB>d A>df>a | f2e>d e2f>g |
| a>ba>g f>Ad>e | f>dB>d A>FD>A | d>ed>B A>ba>g | f2d2 d2 :|
|: d>e \
|f>gf>d e2d>e | f>gf>e d2B2 | f>ef>g f2b2 | f>ed>c B2A>G |
F>GA>d B>AG>B | A>Bc>d e>cA2 | a>ba>f g>ec>d | e2d>c d2 :|
%%begintext align
%% For Caleb Merlin Weatherbee,
%% whose dramatical and musical
%% talents I so greatly enjoy and
%% admire - With fondest Best Wishes.
%%endtext

%%sep 1 1 500

%%sep 1 1 500

